!! Isochronous pitch passage.
!! Inner-voice line.
!! From Beethoven, Symphony No. 9, 2nd movement, measure 9ff.
!! Second violins.
!! 3/4 meter
**kern	**metpos
*M3/4	*M3/4
*tb4	*tb4
=9	=9
4aa	1
4a	2
4a	2
=10	=10
4dd	1
4ee	2
4ff	2
=11	=11
4ee	1
4ff	2
4gg	2
=12	=12
4ff	1
4ee	2
4dd	2
=13	=13
4ff	1
4ee	2
4dd	2
=14	=14
4cc	1
4bn	2
4a	2
=15	=15
4g#	1
4a	2
4bn	2
=16	=16
4a	1
4g#	2
4a	2
=17	=17
4gn	1
4f	2
4e	2
=18	=18
4d	1
4g	2
4a	2
=19	=19
4a	1
4a	2
4a	2
=20	=20
4a	1
4a	2
4aa	2
=21	=21
4dd	1
4ee	2
4ff	2
=22	=22
4ee	1
4dd	2
4cc	2
=23	=23
4bn	1
4a	2
4g#	2
=24	=24
4a	1
4dd	2
4cc	2
=25	=25
4cc#	1
4dd	2
4ee	2
=26	=26
4dd	1
4cc#	2
4dd	2
=27	=27
4a	1
4a	2
4a	2
=28	=28
4a	1
4a	2
4a	2
=29	=29
4aa	1
4gg	2
4ff	2
=30	=30
4ee	1
4dd	2
4ccn	2
=31	=31
4bn	1
4cc	2
4dd	2
=32	=32
4cc	1
4Bn	2
4c	2
=33	=33
4c#	1
4d	2
4e	2
=34	=34
4f	1
4g	2
4a	2
=35	=35
4a	1
4a	2
4a	2
=36	=36
4a	1
4a	2
4a	2
=37	=37
4dd	1
4ccn	2
4g#	2
=38	=38
4a	1
4g#	2
4a	2
=39	=39
4Bn	1
4c	2
4G#	2
=40	=40
4e	1
4d	2
4c	2
=41	=41
4b-	1
4a	2
4gn	2
=42	=42
4f	1
4e	2
4d	2
=43	=43
4c#	1
4d	2
4e	2
=44	=44
4d	1
4c#	2
4d	2
=45	=45
4e	1
4f	2
4g	2
=46	=46
4f	1
4e	2
4f	2
=47	=47
4e	1
4f	2
4g	2
=48	=48
4f	1
4e	2
4f	2
=49	=49
4e	1
4f	2
4g	2
=50	=50
4f	1
4e	2
4f	2
=51	=51
4cc#	1
4dd	2
4ee	2
=52	=52
4dd	1
4cc#	2
4dd	2
=53	=53
4cc#	1
4dd	2
4ee	2
=54	=54
4dd	1
4cc#	2
4dd	2
=55	=55
4cc#	1
4dd	2
4ee	2
=56	=56
4ee	1
4ff	2
4gg	2
=57	=57
4aa	1
4r	2
4r	2
=58	=58
*-	*-
